src/components/content/Icon/functional/accelerating-change.svg

<svg width="100" height="100" viewBox="0 0 100 100" fill="none" xmlns="http://www.w3.org/2000/svg">
<path d="M73.544 36.964C74.868 35.596 75.614 33.806 75.644 31.894C75.676 29.9 74.93 28.01 73.542 26.578C72.154 25.144 70.292 24.338 68.296 24.306C66.586 24.274 64.92 24.84 63.582 25.884C63.3731 26.0474 63.2375 26.2869 63.2049 26.55C63.1723 26.8132 63.2453 27.0786 63.408 27.288C63.5714 27.4969 63.8109 27.6325 64.0741 27.6651C64.3372 27.6977 64.6026 27.6247 64.812 27.462C65.806 26.686 67 26.296 68.262 26.308C69.722 26.332 71.086 26.922 72.104 27.972C73.122 29.022 73.666 30.404 73.644 31.864C73.622 33.324 73.03 34.688 71.98 35.706C70.93 36.722 69.548 37.268 68.088 37.246C66.628 37.222 65.264 36.632 64.246 35.582C63.228 34.532 62.684 33.15 62.706 31.69C62.718 31 62.854 30.33 63.114 29.698C63.2146 29.4526 63.2138 29.1774 63.1119 28.9326C63.0099 28.6878 62.815 28.4934 62.57 28.392C62.3246 28.2914 62.0494 28.2921 61.8046 28.3941C61.5598 28.4961 61.3654 28.6909 61.264 28.936C60.908 29.8 60.722 30.714 60.706 31.656C60.674 33.65 61.42 35.54 62.808 36.972C64.196 38.406 66.058 39.212 68.054 39.244H68.178C69.524 39.244 70.818 38.888 71.952 38.222C77.27 47.994 75.554 60.134 67.618 68.07C64.232 71.456 59.986 73.796 55.338 74.838C50.8171 75.8523 46.1045 75.6061 41.714 74.126C41.4626 74.0415 41.1879 74.0602 40.9502 74.1779C40.7125 74.2956 40.5312 74.5028 40.446 74.754C40.27 75.278 40.55 75.844 41.074 76.022C43.896 76.974 46.84 77.454 49.792 77.454C51.794 77.454 53.8 77.234 55.774 76.792C60.792 75.666 65.378 73.14 69.032 69.486C77.68 60.838 79.486 47.568 73.544 36.968V36.964ZM31.894 60.85C30.3516 60.7902 28.8293 61.2163 27.542 62.068C22.354 52.33 24.1 40.302 31.982 32.42C35.368 29.034 39.614 26.694 44.262 25.652C48.788 24.636 53.498 24.884 57.886 26.364C58.1374 26.4485 58.4121 26.4298 58.6498 26.3121C58.8875 26.1943 59.0688 25.9872 59.154 25.736C59.33 25.212 59.05 24.646 58.526 24.468C53.789 22.8695 48.7038 22.6039 43.826 23.7C38.808 24.826 34.222 27.352 30.568 31.006C21.95 39.624 20.126 52.834 25.998 63.418C24.874 64.706 24.232 66.328 24.172 68.06C24.104 70.054 24.814 71.956 26.176 73.414C27.538 74.872 29.386 75.714 31.38 75.782C33.0838 75.839 34.756 75.3126 36.12 74.29C36.225 74.2111 36.3134 74.1123 36.3802 73.9993C36.447 73.8862 36.4909 73.7611 36.5093 73.631C36.5277 73.501 36.5202 73.3686 36.4874 73.2415C36.4546 73.1143 36.397 72.9949 36.318 72.89C36.2391 72.785 36.1404 72.6965 36.0273 72.6297C35.9142 72.5629 35.7891 72.5191 35.6591 72.5007C35.529 72.4823 35.3966 72.4897 35.2695 72.5226C35.1423 72.5554 35.0229 72.613 34.918 72.692C33.91 73.45 32.708 73.828 31.446 73.782C29.986 73.732 28.632 73.116 27.636 72.048C26.64 70.98 26.118 69.588 26.168 68.128C26.214 66.796 26.732 65.552 27.634 64.588C27.688 64.568 27.744 64.544 27.796 64.512C27.9708 64.4086 28.1092 64.2534 28.192 64.068C29.216 63.236 30.492 62.806 31.822 62.852C33.282 62.902 34.636 63.518 35.632 64.586C36.628 65.654 37.15 67.046 37.1 68.506C37.076 69.196 36.926 69.862 36.656 70.49C36.436 70.996 36.67 71.586 37.176 71.804C37.682 72.024 38.272 71.79 38.49 71.284C38.862 70.428 39.066 69.516 39.098 68.576C39.24 64.46 36.006 60.996 31.89 60.854L31.894 60.85Z" fill="#0B301A"/>
<path d="M47.452 53.52L43.126 64.502C43.12 64.518 43.114 64.536 43.108 64.552C42.88 65.236 43.17 65.984 43.792 66.328C44.014 66.454 44.268 66.52 44.524 66.52C44.978 66.52 45.402 66.318 45.678 65.976L60.466 48.038C60.834 47.59 60.91 46.966 60.664 46.454C60.5422 46.1984 60.3507 45.9824 60.1115 45.831C59.8723 45.6795 59.5951 45.5987 59.312 45.598C59.288 45.598 59.264 45.598 59.242 45.6L54.024 45.97L55.93 41.824C56.16 41.322 55.94 40.728 55.438 40.498C55.3187 40.4428 55.1897 40.4117 55.0583 40.4066C54.9269 40.4015 54.7959 40.4224 54.6726 40.4681C54.5494 40.5138 54.4364 40.5835 54.3402 40.673C54.244 40.7626 54.1664 40.8703 54.112 40.99L51.502 46.67C51.4296 46.8277 51.3994 47.0015 51.4145 47.1744C51.4295 47.3473 51.4893 47.5132 51.588 47.656C51.788 47.946 52.13 48.11 52.48 48.084L58.17 47.68L46.17 62.236L49.852 52.888C49.9118 52.7362 49.9336 52.5722 49.9155 52.4101C49.8974 52.248 49.8399 52.0928 49.748 51.958C49.6564 51.8232 49.5333 51.7128 49.3893 51.6365C49.2454 51.5602 49.0849 51.5202 48.922 51.52H42.36L47.296 39.2H56.33C56.882 39.2 57.33 38.752 57.33 38.2C57.33 37.648 56.882 37.2 56.33 37.2H46.618C46.21 37.2 45.842 37.448 45.69 37.828L39.954 52.148C39.83 52.456 39.868 52.806 40.054 53.08C40.24 53.356 40.55 53.52 40.882 53.52H47.454H47.452Z" fill="#0B301A"/>
</svg>

<svg xmlns="http://www.w3.org/2000/svg" width="100" height="100" fill="none" viewBox="0 0 100 100"><path fill="#0b301a" d="M73.544 36.964a7.42 7.42 0 0 0 2.1-5.07 7.42 7.42 0 0 0-2.102-5.316 7.42 7.42 0 0 0-5.246-2.272 7.45 7.45 0 0 0-4.714 1.578 1.002 1.002 0 0 0 .492 1.781c.263.033.529-.04.738-.203a5.46 5.46 0 0 1 3.45-1.154 5.44 5.44 0 0 1 3.842 1.664 5.43 5.43 0 0 1 1.54 3.892 5.43 5.43 0 0 1-1.664 3.842 5.44 5.44 0 0 1-3.892 1.54 5.44 5.44 0 0 1-3.842-1.664 5.43 5.43 0 0 1-1.54-3.892 5.5 5.5 0 0 1 .408-1.992 1 1 0 0 0-.544-1.306 1 1 0 0 0-1.306.544 7.4 7.4 0 0 0-.558 2.72 7.42 7.42 0 0 0 2.102 5.316 7.42 7.42 0 0 0 5.246 2.272h.124c1.346 0 2.64-.356 3.774-1.022 5.318 9.772 3.602 21.912-4.334 29.848a25.1 25.1 0 0 1-12.28 6.768 25.3 25.3 0 0 1-13.624-.712 1 1 0 0 0-1.268.628c-.176.524.104 1.09.628 1.268a27.27 27.27 0 0 0 14.7.77 27.13 27.13 0 0 0 13.258-7.306c8.648-8.648 10.454-21.918 4.512-32.518zM31.894 60.85a7.37 7.37 0 0 0-4.352 1.218 25.17 25.17 0 0 1 4.44-29.648 25.1 25.1 0 0 1 12.28-6.768 25.3 25.3 0 0 1 13.624.712 1 1 0 0 0 1.268-.628 1 1 0 0 0-.628-1.268 27.27 27.27 0 0 0-14.7-.768 27.13 27.13 0 0 0-13.258 7.306c-8.618 8.618-10.442 21.828-4.57 32.412a7.4 7.4 0 0 0-1.826 4.642 7.42 7.42 0 0 0 2.004 5.354 7.42 7.42 0 0 0 5.204 2.368 7.5 7.5 0 0 0 4.74-1.492 1 1 0 1 0-1.202-1.598 5.4 5.4 0 0 1-3.472 1.09 5.43 5.43 0 0 1-3.81-1.734 5.44 5.44 0 0 1-1.468-3.92 5.43 5.43 0 0 1 1.466-3.54.98.98 0 0 0 .558-.52 5.43 5.43 0 0 1 3.63-1.216 5.43 5.43 0 0 1 3.81 1.734 5.44 5.44 0 0 1 1.468 3.92 5.5 5.5 0 0 1-.444 1.984.999.999 0 1 0 1.834.794 7.4 7.4 0 0 0 .608-2.708c.142-4.116-3.092-7.58-7.208-7.722z"/><path fill="#0b301a" d="m47.452 53.52-4.326 10.982-.018.05a1.49 1.49 0 0 0 1.416 1.968 1.48 1.48 0 0 0 1.154-.544l14.788-17.938a1.492 1.492 0 0 0-1.154-2.44q-.037 0-.07.002l-5.218.37 1.906-4.146a1 1 0 0 0-1.818-.834l-2.61 5.68a1 1 0 0 0 .978 1.414l5.69-.404-12 14.556 3.682-9.348a1 1 0 0 0-.93-1.368H42.36l4.936-12.32h9.034a1 1 0 0 0 0-2h-9.712a1 1 0 0 0-.928.628l-5.736 14.32a.998.998 0 0 0 .928 1.372h6.572z"/></svg>
